src/assets/icon-logo-no-text.svg

<svg width="540" height="460" viewBox="0 0 54 46" fill="none" xmlns="http://www.w3.org/2000/svg">
<path d="M48.7187 29.5573C48.9015 37.2088 32.6772 41.8088 23.2168 45.9533C23.2168 45.9533 42.3204 41.6722 49.0843 35.7058C53.3803 31.9256 52.9233 22.0425 41.7719 23.591C41.6805 23.591 41.4063 24.0009 41.3149 24.0009C41.3149 24.0009 48.6273 24.5474 48.7187 29.5573Z" fill="#224CFF"/>
<path d="M11.8846 15.2574C11.062 15.0297 10.1022 14.7564 9.05108 14.5287L8.73116 13.2079C8.73116 13.2079 29.8456 23.3188 52.5139 0.819802C52.971 0.364356 53.2909 0 53.2909 0C53.2909 0 53.0167 1.27525 53.0624 1.2297C53.0624 1.2297 52.1026 1.91287 50.9144 3.50693C49.0406 6.05743 47.2125 10.9307 50.2745 20.1762L49.2691 20.8594C49.2691 20.8594 48.5378 14.5743 45.293 16.4871C43.5106 17.5347 42.5508 23.6376 42.5508 23.6376L41.1341 24.0475C41.1341 24.0475 46.0699 10.1564 37.8435 12.3881C30.5311 14.4376 27.0578 20.4495 24.6356 45.5446C24.6356 45.7267 23.2188 46 23.2188 46C23.2188 46 25.3211 32.3366 19.1056 32.6554C14.0326 32.8832 5.16638 45.6356 5.16638 45.6356H3.15548C3.20119 45.5901 27.1492 19.402 11.8846 15.2574Z" fill="#224CFF"/>
<path d="M24.1317 14.0281C26.0055 14.0281 27.9707 12.2974 28.5191 10.1568C29.0675 8.01622 28.0621 6.28552 26.1883 6.28552C24.3145 6.28552 22.3493 8.01622 21.8009 10.1568C21.2067 12.2974 22.2579 14.0281 24.1317 14.0281Z" fill="#224CFF"/>
<path d="M43.4191 6.74029C44.8359 6.19375 45.7957 4.55415 45.5671 3.09672C45.3386 1.59375 43.9676 0.865038 42.5508 1.36603C41.134 1.91256 40.1743 3.55217 40.4028 5.00959C40.6313 6.51256 41.9567 7.28682 43.4191 6.74029Z" fill="#224CFF"/>
<path d="M2.28555 44.5877C2.28555 45.2253 1.78273 45.7263 1.14277 45.7263C0.502821 45.7263 0 45.2253 0 44.5877C0 43.9501 0.502821 43.4491 1.14277 43.4491C1.78273 43.4491 2.28555 43.9501 2.28555 44.5877ZM0.137133 44.5877C0.137133 45.1798 0.594243 45.6352 1.14277 45.6352C1.73702 45.6352 2.14842 45.1798 2.14842 44.5877C2.14842 43.9956 1.73702 43.5402 1.14277 43.5402C0.548532 43.5402 0.137133 43.9956 0.137133 44.5877ZM0.822797 44.5422H1.09706C1.27991 44.5422 1.50846 44.5422 1.50846 44.2689C1.50846 44.0412 1.32562 43.9956 1.18849 43.9956H0.822797V44.5422ZM0.731375 43.9045H1.2342C1.55417 43.9045 1.69131 44.0412 1.69131 44.2689C1.69131 44.4966 1.55417 44.5877 1.32562 44.6333L1.73702 45.2253H1.59988L1.18849 44.6333H0.822797V45.2253H0.731375V43.9045Z" fill="#224CFF"/>
</svg>

<svg width="540" height="460" viewBox="0 0 54 46" fill="none" xmlns="http://www.w3.org/2000/svg"><path d="M48.719 29.557C48.9 37.21 32.677 41.81 23.217 45.953c0 0 19.103-4.28 25.867-10.247 4.296-3.78 3.84-13.664-7.312-12.115-.091 0-.366.41-.457.41 0 0 7.312.546 7.404 5.556z" fill="#224CFF"/><path d="M11.885 15.257c-.823-.227-1.783-.5-2.834-.728l-.32-1.321S29.846 23.318 52.514.82c.457-.456.777-.82.777-.82s-.274 1.275-.229 1.23c0 0-.96.683-2.148 2.277-1.873 2.55-3.702 7.424-.64 16.67l-1.005.682s-.731-6.285-3.976-4.372c-1.782 1.048-2.742 7.15-2.742 7.15l-1.417.41s4.936-13.89-3.29-11.659c-7.313 2.05-10.786 8.062-13.208 33.157 0 .182-1.417.455-1.417.455s2.102-13.663-4.113-13.345c-5.073.228-13.94 12.98-13.94 12.98h-2.01c.045-.045 23.993-26.233 8.729-30.378z" fill="#224CFF"/><path d="M24.132 14.028c1.873 0 3.839-1.73 4.387-3.871.549-2.14-.457-3.871-2.33-3.871-1.875 0-3.84 1.73-4.388 3.87-.594 2.141.457 3.872 2.33 3.872zM43.42 6.74c1.416-.546 2.376-2.186 2.147-3.643-.228-1.503-1.6-2.232-3.016-1.731-1.417.547-2.377 2.186-2.148 3.644.228 1.503 1.554 2.277 3.016 1.73zM2.286 44.588a1.13 1.13 0 0 1-1.143 1.138A1.13 1.13 0 0 1 0 44.588a1.13 1.13 0 0 1 1.143-1.139c.64 0 1.143.501 1.143 1.139zm-2.149 0c0 .592.457 1.047 1.006 1.047.594 0 1.005-.455 1.005-1.047 0-.592-.411-1.048-1.005-1.048-.594 0-1.006.456-1.006 1.048zm.686-.046h.274c.183 0 .411 0 .411-.273 0-.228-.182-.273-.32-.273H.823v.546zm-.092-.638h.503c.32 0 .457.137.457.365 0 .228-.137.319-.365.364l.411.592H1.6l-.412-.592H.823v.592H.73v-1.32z" fill="#224CFF"/></svg>
